img/hint2.svg

<svg width="10" height="15" fill="none" xmlns="http://www.w3.org/2000/svg"><path d="M5.544.23c.012-.012.036-.018.072-.018h.072a.34.34 0 00.108-.018.34.34 0 01.108-.018c.132 0 .252.024.36.072.12.048.246.072.378.072l.09.09a.222.222 0 00.126.036c.084.072.198.102.342.09.144-.012.246.042.306.162a.314.314 0 00.162.09c.072 0 .12.03.144.09.108.024.18.084.216.18.036.096.09.144.162.144a.674.674 0 01.216.126c.072.048.108.12.108.216a.33.33 0 00.18.18c.084.036.132.114.144.234l.108.18c.048.048.108.09.18.126.024.096.048.186.072.27.024.072.06.15.108.234.072.096.102.234.09.414 0 .18.048.312.144.396v.072a.296.296 0 01-.018.09.16.16 0 00-.018.072c0 .096.018.18.054.252.048.072.072.15.072.234a.757.757 0 01-.072.342.57.57 0 00-.072.288c0 .06.006.132.018.216.012.072.018.138.018.198 0 .096-.042.234-.126.414-.084.168-.15.33-.198.486-.024 0-.036.012-.036.036v.054c0 .072-.018.126-.054.162a1.175 1.175 0 01-.126.108 2.846 2.846 0 00-.126.09.195.195 0 00-.054.144.279.279 0 01-.18.216.57.57 0 00-.216.162.885.885 0 01-.306.252c-.12.06-.24.114-.36.162-.12.036-.24.078-.36.126a.678.678 0 00-.27.162h-.09c-.048 0-.12.03-.216.09-.084.06-.126.12-.126.18v.108a.632.632 0 01.018.18.295.295 0 01-.036.162.34.34 0 00-.018.108v.108c.012.048.024.102.036.162a.357.357 0 01.036.162c0 .06-.03.162-.09.306a.438.438 0 01-.324.27c-.264.06-.552.09-.864.09-.3 0-.588.012-.864.036 0-.012-.018-.018-.054-.018a2.631 2.631 0 00-.324-.018l-.342-.036a1.013 1.013 0 01-.288-.072.402.402 0 01-.18-.234c0-.072-.024-.12-.072-.144-.036-.024-.054-.066-.054-.126v-.306a2.32 2.32 0 00.018-.288v-.144a.834.834 0 00-.018-.162.32.32 0 00.036-.144.504.504 0 00-.072-.252.974.974 0 01-.054-.342c0-.096.012-.186.036-.27a.772.772 0 00.036-.198.567.567 0 00-.054-.216.807.807 0 01-.036-.216c0-.096.03-.174.09-.234.06-.06.09-.138.09-.234a.571.571 0 00-.036-.162c.036-.084.084-.138.144-.162.06-.024.12-.042.18-.054.06-.012.114-.024.162-.036a.217.217 0 00.126-.126h.072a.16.16 0 01.072-.018.83.83 0 01.324.054.815.815 0 00.288.054c.192 0 .366-.03.522-.09.156-.072.306-.138.45-.198a.287.287 0 00.234-.198A.655.655 0 016.084 5c.084-.18.126-.42.126-.72 0-.084-.006-.162-.018-.234 0-.072-.006-.144-.018-.216a3.672 3.672 0 01-.432-.432c-.12-.168-.294-.252-.522-.252a.399.399 0 01-.126-.018.222.222 0 00-.126-.036.925.925 0 00-.288.054 1.613 1.613 0 00-.288.144 1.62 1.62 0 00-.234.162.433.433 0 00-.108.108 1.084 1.084 0 01-.234.486 1.16 1.16 0 01-.378.252 1.52 1.52 0 01-.486.108 8.68 8.68 0 01-.576.018h-.414a4.372 4.372 0 00-.396-.018 1.78 1.78 0 00-.252.018 1.312 1.312 0 01-.216.018.774.774 0 01-.432-.144.437.437 0 01-.216-.378.476.476 0 00-.072-.27.557.557 0 01-.054-.252c.108-.06.162-.168.162-.324a.828.828 0 01.108-.378C.69 2.564.762 2.432.81 2.3a.8.8 0 01.306-.36c.06-.18.15-.336.27-.468l.396-.396c.132-.072.264-.126.396-.162a.383.383 0 00.27-.27c.096-.024.216-.072.36-.144.156-.072.276-.108.36-.108h.072A.853.853 0 003.546.32a.972.972 0 01.288-.072h.126a.581.581 0 00.216-.036.639.639 0 01.234-.036c.372 0 .75.018 1.134.054zM5.31 10.688c.096.036.198.06.306.072a.31.31 0 01.252.108c.072.084.144.162.216.234a.7.7 0 00.252.162c.168.168.282.324.342.468.06.132.09.228.09.288a.774.774 0 01-.018.144.67.67 0 00-.018.162c0 .096.006.186.018.27.012.084.018.174.018.27a.725.725 0 01-.054.288.909.909 0 01-.108.216c-.036.06-.078.12-.126.18a.56.56 0 00-.072.198c-.06.168-.234.342-.522.522-.288.18-.642.27-1.062.27-.3 0-.564-.048-.792-.144-.096 0-.162-.042-.198-.126a.222.222 0 00-.162-.162 1.504 1.504 0 01-.396-.342 2.76 2.76 0 00-.306-.378v-.126a.529.529 0 00.018-.126c0-.096-.024-.168-.072-.216v-.486c0-.36.09-.666.27-.918a.414.414 0 00.144-.144c.048-.072.09-.138.126-.198a.837.837 0 01.126-.162.363.363 0 01.234-.072.624.624 0 00.252-.126.522.522 0 01.288-.126.256.256 0 01.144-.036.242.242 0 00.162-.09c.264 0 .48.042.648.126z" fill="#fff"/></svg>

<svg width="10" height="15" viewBox="0 0 10 15" fill="none" xmlns="http://www.w3.org/2000/svg">
<path d="M5.544 0.229999C5.556 0.217999 5.58 0.211999 5.616 0.211999H5.688C5.724 0.211999 5.76 0.205999 5.796 0.194C5.832 0.182 5.868 0.176 5.904 0.176C6.036 0.176 6.156 0.2 6.264 0.247999C6.384 0.295999 6.51 0.319999 6.642 0.319999C6.666 0.344 6.696 0.373999 6.732 0.409999C6.768 0.433999 6.81 0.446 6.858 0.446C6.942 0.517999 7.056 0.547999 7.2 0.536C7.344 0.524 7.446 0.578 7.506 0.698C7.554 0.746 7.608 0.776 7.668 0.788C7.74 0.788 7.788 0.817999 7.812 0.877999C7.92 0.901999 7.992 0.961999 8.028 1.058C8.064 1.154 8.118 1.202 8.19 1.202C8.262 1.226 8.334 1.268 8.406 1.328C8.478 1.376 8.514 1.448 8.514 1.544C8.55 1.628 8.61 1.688 8.694 1.724C8.778 1.76 8.826 1.838 8.838 1.958C8.874 2.018 8.91 2.078 8.946 2.138C8.994 2.186 9.054 2.228 9.126 2.264C9.15 2.36 9.174 2.45 9.198 2.534C9.222 2.606 9.258 2.684 9.306 2.768C9.378 2.864 9.408 3.002 9.396 3.182C9.396 3.362 9.444 3.494 9.54 3.578V3.65C9.54 3.674 9.534 3.704 9.522 3.74C9.51 3.764 9.504 3.788 9.504 3.812C9.504 3.908 9.522 3.992 9.558 4.064C9.606 4.136 9.63 4.214 9.63 4.298C9.63 4.43 9.606 4.544 9.558 4.64C9.51 4.724 9.486 4.82 9.486 4.928C9.486 4.988 9.492 5.06 9.504 5.144C9.516 5.216 9.522 5.282 9.522 5.342C9.522 5.438 9.48 5.576 9.396 5.756C9.312 5.924 9.246 6.086 9.198 6.242C9.174 6.242 9.162 6.254 9.162 6.278V6.332C9.162 6.404 9.144 6.458 9.108 6.494C9.072 6.53 9.03 6.566 8.982 6.602C8.946 6.626 8.904 6.656 8.856 6.692C8.82 6.728 8.802 6.776 8.802 6.836C8.778 6.944 8.718 7.016 8.622 7.052C8.538 7.088 8.466 7.142 8.406 7.214C8.322 7.322 8.22 7.406 8.1 7.466C7.98 7.526 7.86 7.58 7.74 7.628C7.62 7.664 7.5 7.706 7.38 7.754C7.272 7.79 7.182 7.844 7.11 7.916H7.02C6.972 7.916 6.9 7.946 6.804 8.006C6.72 8.066 6.678 8.126 6.678 8.186V8.276V8.294C6.69 8.33 6.696 8.39 6.696 8.474C6.696 8.546 6.684 8.6 6.66 8.636C6.648 8.672 6.642 8.708 6.642 8.744V8.834V8.852C6.654 8.9 6.666 8.954 6.678 9.014C6.702 9.062 6.714 9.116 6.714 9.176C6.714 9.236 6.684 9.338 6.624 9.482C6.564 9.626 6.456 9.716 6.3 9.752C6.036 9.812 5.748 9.842 5.436 9.842C5.136 9.842 4.848 9.854 4.572 9.878C4.572 9.866 4.554 9.86 4.518 9.86C4.422 9.848 4.314 9.842 4.194 9.842C4.074 9.83 3.96 9.818 3.852 9.806C3.744 9.794 3.648 9.77 3.564 9.734C3.48 9.686 3.42 9.608 3.384 9.5C3.384 9.428 3.36 9.38 3.312 9.356C3.276 9.332 3.258 9.29 3.258 9.23C3.258 9.11 3.258 9.008 3.258 8.924C3.27 8.828 3.276 8.732 3.276 8.636C3.276 8.588 3.276 8.54 3.276 8.492C3.276 8.444 3.27 8.39 3.258 8.33C3.282 8.282 3.294 8.234 3.294 8.186C3.294 8.102 3.27 8.018 3.222 7.934C3.186 7.838 3.168 7.724 3.168 7.592C3.168 7.496 3.18 7.406 3.204 7.322C3.228 7.238 3.24 7.172 3.24 7.124C3.24 7.064 3.222 6.992 3.186 6.908C3.162 6.824 3.15 6.752 3.15 6.692C3.15 6.596 3.18 6.518 3.24 6.458C3.3 6.398 3.33 6.32 3.33 6.224C3.33 6.188 3.318 6.134 3.294 6.062C3.33 5.978 3.378 5.924 3.438 5.9C3.498 5.876 3.558 5.858 3.618 5.846C3.678 5.834 3.732 5.822 3.78 5.81C3.84 5.786 3.882 5.744 3.906 5.684C3.93 5.684 3.954 5.684 3.978 5.684C4.002 5.672 4.026 5.666 4.05 5.666C4.182 5.666 4.29 5.684 4.374 5.72C4.47 5.756 4.566 5.774 4.662 5.774C4.854 5.774 5.028 5.744 5.184 5.684C5.34 5.612 5.49 5.546 5.634 5.486C5.754 5.462 5.832 5.396 5.868 5.288C5.916 5.168 5.988 5.072 6.084 5C6.168 4.82 6.21 4.58 6.21 4.28C6.21 4.196 6.204 4.118 6.192 4.046C6.192 3.974 6.186 3.902 6.174 3.83C6.018 3.698 5.874 3.554 5.742 3.398C5.622 3.23 5.448 3.146 5.22 3.146C5.172 3.146 5.13 3.14 5.094 3.128C5.058 3.104 5.016 3.092 4.968 3.092C4.884 3.092 4.788 3.11 4.68 3.146C4.584 3.182 4.488 3.23 4.392 3.29C4.308 3.338 4.23 3.392 4.158 3.452C4.098 3.5 4.062 3.536 4.05 3.56C4.002 3.764 3.924 3.926 3.816 4.046C3.708 4.154 3.582 4.238 3.438 4.298C3.294 4.358 3.132 4.394 2.952 4.406C2.772 4.418 2.58 4.424 2.376 4.424C2.232 4.424 2.094 4.424 1.962 4.424C1.83 4.412 1.698 4.406 1.566 4.406C1.482 4.406 1.398 4.412 1.314 4.424C1.242 4.436 1.17 4.442 1.098 4.442C0.954 4.442 0.81 4.394 0.666 4.298C0.522 4.202 0.45 4.076 0.45 3.92C0.45 3.812 0.426 3.722 0.378 3.65C0.342 3.578 0.324 3.494 0.324 3.398C0.432 3.338 0.486 3.23 0.486 3.074C0.498 2.918 0.534 2.792 0.594 2.696C0.69 2.564 0.762 2.432 0.81 2.3C0.87 2.156 0.972 2.036 1.116 1.94C1.176 1.76 1.266 1.604 1.386 1.472C1.518 1.34 1.65 1.208 1.782 1.076C1.914 1.004 2.046 0.949999 2.178 0.913999C2.31 0.877999 2.4 0.788 2.448 0.643999C2.544 0.62 2.664 0.571999 2.808 0.499999C2.964 0.427999 3.084 0.391999 3.168 0.391999H3.24C3.324 0.391999 3.426 0.367999 3.546 0.319999C3.678 0.271999 3.774 0.247999 3.834 0.247999H3.96C4.044 0.247999 4.116 0.235999 4.176 0.211999C4.236 0.188 4.314 0.176 4.41 0.176C4.782 0.176 5.16 0.194 5.544 0.229999ZM5.31 10.688C5.406 10.724 5.508 10.748 5.616 10.76C5.724 10.76 5.808 10.796 5.868 10.868C5.94 10.952 6.012 11.03 6.084 11.102C6.156 11.174 6.24 11.228 6.336 11.264C6.504 11.432 6.618 11.588 6.678 11.732C6.738 11.864 6.768 11.96 6.768 12.02C6.768 12.056 6.762 12.104 6.75 12.164C6.738 12.212 6.732 12.266 6.732 12.326C6.732 12.422 6.738 12.512 6.75 12.596C6.762 12.68 6.768 12.77 6.768 12.866C6.768 12.974 6.75 13.07 6.714 13.154C6.69 13.226 6.654 13.298 6.606 13.37C6.57 13.43 6.528 13.49 6.48 13.55C6.444 13.61 6.42 13.676 6.408 13.748C6.348 13.916 6.174 14.09 5.886 14.27C5.598 14.45 5.244 14.54 4.824 14.54C4.524 14.54 4.26 14.492 4.032 14.396C3.936 14.396 3.87 14.354 3.834 14.27C3.81 14.186 3.756 14.132 3.672 14.108C3.528 14.024 3.396 13.91 3.276 13.766C3.168 13.61 3.066 13.484 2.97 13.388C2.97 13.352 2.97 13.31 2.97 13.262C2.982 13.214 2.988 13.172 2.988 13.136C2.988 13.04 2.964 12.968 2.916 12.92V12.758V12.434C2.916 12.074 3.006 11.768 3.186 11.516C3.246 11.48 3.294 11.432 3.33 11.372C3.378 11.3 3.42 11.234 3.456 11.174C3.492 11.114 3.534 11.06 3.582 11.012C3.642 10.964 3.72 10.94 3.816 10.94C3.912 10.916 3.996 10.874 4.068 10.814C4.152 10.742 4.248 10.7 4.356 10.688C4.392 10.664 4.44 10.652 4.5 10.652C4.572 10.64 4.626 10.61 4.662 10.562C4.926 10.562 5.142 10.604 5.31 10.688Z" fill="white"/>
</svg>
